X: 4820
T: Boys Of The Town, The
R: jig
M: 6/8
K: Dmixolydian
d|d (3cBA G2A|EDE G2B|AGA ABc|BGE E2D|
d (3cBA G2A|EDE G2B|AGE G2A|GED D2:|
c|BAB dBG|BAB dBG|AGA ABc|BGE E2c|
BAB def|gfe dBG|AGE G2A|GED D2:|

